X: 218
T:Macpherson's Rant
M:C
L:1/8
Q:1/4=100
K:F
CD|F3C F2 A2|GF GA G2 CD|F3A BA GF|D6
CD|F3C F2 GF|A2 G2 G2 CD|F3A GF D2|C6||
AB|c3A BA GF|A2 G2 G2 AB|c3c BA GF|D6
d2|c3A BA GF|A2 G2 G2 CD|F3A GF D2|C6|]

This ballad tune (one of the oldest known) is centred on D at the
start of each line and through most of the central part, but ends
with a bar in A major.  It's hexatonic, and the missing G adds to
the ambiguity.

